lib/assets/icons/svg/outlined-content-christmascard.svg

<svg viewBox="0 0 24 24" xmlns="http://www.w3.org/2000/svg">
  <path  d="M 19.851 8.716 L 19.851 21.716 C 19.84 22.429 19.264 23.005 18.551 23.016 L 5.451 23.016 C 4.753 23.006 4.183 22.454 4.151 21.756 L 4.151 18.756 C 4.151 18.656 4.351 18.556 4.551 18.556 L 4.631 18.556 C 4.776 18.576 4.875 18.712 4.851 18.856 L 4.851 21.856 C 4.875 22.177 5.13 22.432 5.451 22.456 L 18.551 22.456 C 18.872 22.432 19.127 22.177 19.151 21.856 L 19.151 8.776 C 19.176 8.634 19.308 8.538 19.451 8.556 C 19.602 8.545 19.75 8.604 19.851 8.716 Z M 15.251 11.356 C 15.051 11.356 14.951 11.456 14.851 11.456 L 15.951 12.356 C 16.196 12.586 16.309 12.925 16.251 13.256 C 16.128 13.578 15.873 13.833 15.551 13.956 C 15.551 14.056 15.451 14.056 15.351 14.056 L 16.351 14.856 C 16.472 14.967 16.562 15.109 16.611 15.266 C 16.811 15.832 16.516 16.454 15.951 16.656 C 15.161 16.868 14.36 17.035 13.551 17.156 L 13.751 18.456 C 13.825 18.868 13.56 19.266 13.151 19.356 C 12.756 19.434 12.353 19.468 11.951 19.456 C 11.549 19.468 11.146 19.434 10.751 19.356 C 10.342 19.266 10.077 18.868 10.151 18.456 L 10.451 17.056 C 9.642 16.935 8.841 16.768 8.051 16.556 C 7.684 16.446 7.412 16.135 7.351 15.756 C 7.228 15.393 7.348 14.991 7.651 14.756 L 8.651 13.956 C 8.651 13.856 8.551 13.856 8.451 13.856 C 8.11 13.763 7.844 13.497 7.751 13.156 C 7.643 12.823 7.765 12.458 8.051 12.256 L 9.151 11.356 C 8.951 11.356 8.851 11.256 8.751 11.256 C 8.454 11.128 8.232 10.869 8.151 10.556 C 8.141 10.26 8.249 9.973 8.451 9.756 L 11.251 7.356 C 11.669 7.056 12.233 7.056 12.651 7.356 L 15.451 9.656 C 15.722 9.869 15.84 10.223 15.751 10.556 C 15.668 10.867 15.494 11.145 15.251 11.356 Z M 13.151 18.556 L 12.851 17.156 L 11.051 17.156 L 10.851 18.556 C 10.851 18.611 10.896 18.656 10.951 18.656 C 11.647 18.756 12.355 18.756 13.051 18.656 Z M 14.251 14.216 C 12.608 14.616 10.894 14.616 9.251 14.216 L 7.851 15.316 C 7.751 15.416 7.651 15.516 7.751 15.716 C 7.851 15.916 7.951 16.016 8.051 16.016 C 8.893 16.3 9.766 16.482 10.651 16.556 L 10.751 16.556 C 11.481 16.656 12.221 16.656 12.951 16.556 L 13.051 16.556 C 13.933 16.484 14.805 16.317 15.651 16.056 C 15.851 15.956 15.851 15.956 15.951 15.756 C 16.051 15.556 15.951 15.456 15.851 15.356 Z M 14.051 11.556 C 13.39 11.668 12.721 11.734 12.051 11.756 C 11.381 11.734 10.712 11.668 10.051 11.556 L 8.551 12.756 C 8.474 12.836 8.438 12.946 8.451 13.056 C 8.451 13.166 8.541 13.256 8.651 13.256 C 8.951 13.356 9.151 13.356 9.451 13.456 C 11.128 13.856 12.874 13.856 14.551 13.456 C 14.827 13.436 15.098 13.368 15.351 13.256 C 15.457 13.247 15.542 13.162 15.551 13.056 C 15.564 12.946 15.528 12.836 15.451 12.756 Z M 14.951 10.256 L 12.151 7.856 C 12 7.755 11.802 7.755 11.651 7.856 L 8.851 10.256 C 8.793 10.307 8.757 10.379 8.751 10.456 C 8.76 10.562 8.845 10.647 8.951 10.656 C 9.274 10.768 9.61 10.835 9.951 10.856 C 11.301 11.156 12.701 11.156 14.051 10.856 C 14.359 10.835 14.663 10.767 14.951 10.656 C 15.151 10.556 15.151 10.456 15.151 10.456 C 15.151 10.456 15.151 10.356 14.951 10.256 Z M 8.551 6.156 L 8.051 6.656 L 8.551 7.156 C 8.652 7.307 8.652 7.505 8.551 7.656 C 8.551 7.756 8.451 7.756 8.351 7.756 C 8.251 7.756 8.251 7.756 8.151 7.656 L 7.551 7.256 L 7.051 7.756 C 7.051 7.856 6.951 7.856 6.851 7.856 C 6.751 7.856 6.751 7.856 6.651 7.756 C 6.55 7.605 6.55 7.407 6.651 7.256 L 7.151 6.656 L 6.551 6.156 C 6.45 6.005 6.45 5.807 6.551 5.656 C 6.702 5.555 6.9 5.555 7.051 5.656 L 7.651 6.256 L 8.151 5.656 C 8.302 5.555 8.5 5.555 8.651 5.656 C 8.751 5.756 8.751 5.956 8.551 6.156 Z M 16.051 7.856 L 16.551 7.356 L 16.051 6.856 C 15.95 6.705 15.95 6.507 16.051 6.356 C 16.202 6.255 16.4 6.255 16.551 6.356 L 17.051 6.856 L 17.551 6.356 C 17.702 6.255 17.9 6.255 18.051 6.356 C 18.152 6.507 18.152 6.705 18.051 6.856 L 17.551 7.356 L 18.051 7.856 C 18.152 8.007 18.152 8.205 18.051 8.356 C 18.051 8.456 17.951 8.456 17.851 8.456 C 17.751 8.456 17.751 8.456 17.651 8.356 L 17.151 7.856 L 16.651 8.356 C 16.651 8.456 16.551 8.456 16.451 8.456 C 16.351 8.456 16.351 8.456 16.251 8.356 C 16.151 8.156 16.151 7.956 16.051 7.856 Z M 18.751 3.466 C 19.356 3.573 19.76 4.151 19.651 4.756 L 19.651 6.856 C 19.651 6.963 19.594 7.062 19.501 7.116 C 19.301 7.231 19.051 7.087 19.051 6.856 L 19.051 4.756 C 19.027 4.435 18.772 4.18 18.451 4.156 L 5.351 4.156 C 5.03 4.18 4.775 4.435 4.751 4.756 L 4.751 16.926 C 4.73 17.072 4.597 17.174 4.451 17.156 L 4.371 17.156 C 4.229 17.131 4.133 16.999 4.151 16.856 L 4.151 4.756 C 4.134 4.161 4.563 3.647 5.151 3.556 L 16.951 1.016 C 17.352 0.92 17.774 1.05 18.051 1.356 C 18.352 1.645 18.531 2.039 18.551 2.456 L 18.551 3.456 Z M 17.951 2.356 C 17.98 2.114 17.862 1.878 17.651 1.756 C 17.463 1.673 17.256 1.639 17.051 1.656 L 8.451 3.456 L 17.951 3.456 Z M 8.551 19.056 L 8.051 19.556 L 8.551 20.056 C 8.652 20.207 8.652 20.405 8.551 20.556 C 8.551 20.656 8.451 20.656 8.351 20.656 C 8.251 20.656 8.251 20.656 8.151 20.556 L 7.551 20.056 L 7.051 20.556 C 7.051 20.656 6.951 20.656 6.851 20.656 C 6.751 20.656 6.751 20.656 6.651 20.556 C 6.55 20.405 6.55 20.207 6.651 20.056 L 7.151 19.556 L 6.651 19.056 C 6.55 18.905 6.55 18.707 6.651 18.556 C 6.802 18.455 7 18.455 7.151 18.556 L 7.651 19.056 L 8.151 18.556 C 8.302 18.455 8.5 18.455 8.651 18.556 C 8.751 18.656 8.751 18.856 8.551 19.056 Z M 6.351 13.216 L 6.651 12.916 C 6.802 12.815 7 12.815 7.151 12.916 C 7.252 13.067 7.252 13.265 7.151 13.416 L 6.751 13.716 L 7.051 14.016 C 7.152 14.167 7.152 14.365 7.051 14.516 C 7.051 14.616 6.951 14.616 6.851 14.616 C 6.751 14.616 6.751 14.616 6.651 14.516 L 6.351 14.216 L 6.051 14.516 C 6.051 14.616 5.951 14.616 5.851 14.616 C 5.751 14.616 5.751 14.616 5.651 14.516 C 5.55 14.365 5.55 14.167 5.651 14.016 L 5.951 13.816 L 5.651 13.516 C 5.55 13.365 5.55 13.167 5.651 13.016 C 5.802 12.915 6 12.915 6.151 13.016 Z M 17.551 12.056 L 17.251 11.756 L 16.951 12.056 C 16.951 12.156 16.851 12.156 16.751 12.156 C 16.651 12.156 16.651 12.156 16.551 12.056 C 16.45 11.905 16.45 11.707 16.551 11.556 L 16.851 11.256 L 16.551 10.956 C 16.45 10.805 16.45 10.607 16.551 10.456 C 16.702 10.355 16.9 10.355 17.051 10.456 L 17.351 10.756 L 17.651 10.456 C 17.802 10.355 18 10.355 18.151 10.456 C 18.252 10.607 18.252 10.805 18.151 10.956 L 17.751 11.256 L 18.051 11.556 C 18.152 11.707 18.152 11.905 18.051 12.056 C 18.051 12.156 17.951 12.156 17.851 12.156 C 17.768 12.084 17.66 12.048 17.551 12.056 Z M 15.551 19.376 C 15.474 19.283 15.474 19.149 15.551 19.056 L 16.051 18.556 L 15.551 18.056 C 15.462 17.967 15.427 17.837 15.459 17.714 C 15.53 17.452 15.859 17.364 16.051 17.556 L 16.551 18.056 L 16.851 17.456 C 16.94 17.367 17.07 17.332 17.193 17.364 C 17.455 17.435 17.543 17.764 17.351 17.956 L 16.851 18.456 L 17.351 18.956 C 17.452 19.107 17.452 19.305 17.351 19.456 C 17.351 19.556 17.251 19.556 17.151 19.556 C 17.051 19.556 17.051 19.556 16.951 19.456 L 16.451 18.956 L 15.951 19.456 C 15.951 19.556 15.851 19.556 15.751 19.556 C 15.651 19.556 15.651 19.556 15.551 19.456 C 15.56 19.43 15.56 19.402 15.551 19.376 Z"/>
</svg>

<svg xmlns="http://www.w3.org/2000/svg" viewBox="0 0 24 24"><path d="M19.851 8.716v13a1.321 1.321 0 0 1-1.3 1.3h-13.1a1.32 1.32 0 0 1-1.3-1.26v-3c0-.1.2-.2.4-.2h.08a.26.26 0 0 1 .22.3v3a.65.65 0 0 0 .6.6h13.1a.65.65 0 0 0 .6-.6V8.776a.27.27 0 0 1 .3-.22.49.49 0 0 1 .4.16zm-4.6 2.64c-.2 0-.3.1-.4.1l1.1.9a1 1 0 0 1 .3.9 1.214 1.214 0 0 1-.7.7c0 .1-.1.1-.2.1l1 .8a.936.936 0 0 1 .26.41 1.09 1.09 0 0 1-.66 1.39c-.79.212-1.591.379-2.4.5l.2 1.3a.78.78 0 0 1-.6.9 5.371 5.371 0 0 1-1.2.1 5.371 5.371 0 0 1-1.2-.1.78.78 0 0 1-.6-.9l.3-1.4a21.567 21.567 0 0 1-2.4-.5 1 1 0 0 1-.7-.8.9.9 0 0 1 .3-1l1-.8c0-.1-.1-.1-.2-.1a.997.997 0 0 1-.7-.7.8.8 0 0 1 .3-.9l1.1-.9c-.2 0-.3-.1-.4-.1a1.05 1.05 0 0 1-.6-.7c-.01-.296.098-.583.3-.8l2.8-2.4c.418-.3.982-.3 1.4 0l2.8 2.3a.862.862 0 0 1 .3.9 1.608 1.608 0 0 1-.5.8zm-2.1 7.2l-.3-1.4h-1.8l-.2 1.4a.1.1 0 0 0 .1.1c.696.1 1.404.1 2.1 0zm1.1-4.34c-1.643.4-3.357.4-5 0l-1.4 1.1c-.1.1-.2.2-.1.4s.2.3.3.3c.842.284 1.715.466 2.6.54h.1c.73.1 1.47.1 2.2 0h.1a12.181 12.181 0 0 0 2.6-.5c.2-.1.2-.1.3-.3.1-.2 0-.3-.1-.4zm-.2-2.66c-.661.112-1.33.178-2 .2a14.906 14.906 0 0 1-2-.2l-1.5 1.2a.37.37 0 0 0-.1.3c0 .11.09.2.2.2.3.1.5.1.8.2 1.677.4 3.423.4 5.1 0 .276-.02.547-.088.8-.2a.22.22 0 0 0 .2-.2.37.37 0 0 0-.1-.3zm.9-1.3l-2.8-2.4a.45.45 0 0 0-.5 0l-2.8 2.4a.298.298 0 0 0-.1.2.22.22 0 0 0 .2.2c.323.112.659.179 1 .2 1.35.3 2.75.3 4.1 0a3.09 3.09 0 0 0 .9-.2c.2-.1.2-.2.2-.2s0-.1-.2-.2zm-6.4-4.1l-.5.5.5.5a.45.45 0 0 1 0 .5c0 .1-.1.1-.2.1s-.1 0-.2-.1l-.6-.4-.5.5c0 .1-.1.1-.2.1s-.1 0-.2-.1a.45.45 0 0 1 0-.5l.5-.6-.6-.5a.45.45 0 0 1 0-.5.45.45 0 0 1 .5 0l.6.6.5-.6a.45.45 0 0 1 .5 0c.1.1.1.3-.1.5zm7.5 1.7l.5-.5-.5-.5a.45.45 0 0 1 0-.5.45.45 0 0 1 .5 0l.5.5.5-.5a.45.45 0 0 1 .5 0 .45.45 0 0 1 0 .5l-.5.5.5.5a.45.45 0 0 1 0 .5c0 .1-.1.1-.2.1s-.1 0-.2-.1l-.5-.5-.5.5c0 .1-.1.1-.2.1s-.1 0-.2-.1c-.1-.2-.1-.4-.2-.5zm2.7-4.39a1.11 1.11 0 0 1 .9 1.29v2.1a.3.3 0 0 1-.6 0v-2.1a.65.65 0 0 0-.6-.6h-13.1a.65.65 0 0 0-.6.6v12.17a.27.27 0 0 1-.3.23h-.08a.27.27 0 0 1-.22-.3v-12.1a1.18 1.18 0 0 1 1-1.2l11.8-2.54a1.13 1.13 0 0 1 1.1.34c.301.289.48.683.5 1.1v1zm-.8-1.11a.61.61 0 0 0-.3-.6 1.235 1.235 0 0 0-.6-.1l-8.6 1.8h9.5zm-9.4 16.7l-.5.5.5.5a.45.45 0 0 1 0 .5c0 .1-.1.1-.2.1s-.1 0-.2-.1l-.6-.5-.5.5c0 .1-.1.1-.2.1s-.1 0-.2-.1a.45.45 0 0 1 0-.5l.5-.5-.5-.5a.45.45 0 0 1 0-.5.45.45 0 0 1 .5 0l.5.5.5-.5a.45.45 0 0 1 .5 0c.1.1.1.3-.1.5zm-2.2-5.84l.3-.3a.45.45 0 0 1 .5 0 .45.45 0 0 1 0 .5l-.4.3.3.3a.45.45 0 0 1 0 .5c0 .1-.1.1-.2.1s-.1 0-.2-.1l-.3-.3-.3.3c0 .1-.1.1-.2.1s-.1 0-.2-.1a.45.45 0 0 1 0-.5l.3-.2-.3-.3a.45.45 0 0 1 0-.5.45.45 0 0 1 .5 0zm11.2-1.16l-.3-.3-.3.3c0 .1-.1.1-.2.1s-.1 0-.2-.1a.45.45 0 0 1 0-.5l.3-.3-.3-.3a.45.45 0 0 1 0-.5.45.45 0 0 1 .5 0l.3.3.3-.3a.45.45 0 0 1 .5 0 .45.45 0 0 1 0 .5l-.4.3.3.3a.45.45 0 0 1 0 .5c0 .1-.1.1-.2.1a.412.412 0 0 0-.3-.1zm-2 7.32a.25.25 0 0 1 0-.32l.5-.5-.5-.5a.356.356 0 0 1-.092-.342c.071-.262.4-.35.592-.158l.5.5.3-.6a.356.356 0 0 1 .342-.092c.262.071.35.4.158.592l-.5.5.5.5a.45.45 0 0 1 0 .5c0 .1-.1.1-.2.1s-.1 0-.2-.1l-.5-.5-.5.5c0 .1-.1.1-.2.1s-.1 0-.2-.1a.122.122 0 0 0 0-.08z"/></svg>
